res/img/anonymous_figure.svg

<svg viewBox="0 0 589.062 716.425" xmlns="http://www.w3.org/2000/svg"><path d="m569.9 656.586h-153.8v-187.186a15.9 15.9 0 0 1 15.9-15.9h122.068a15.9 15.9 0 0 1 15.9 15.9v187.19z" fill="#041751" transform="translate(-160.724 -175.161)"/><path d="m315.032 494.559h13.932v166.568h-13.932z" fill="#041751"/><path d="m482.652 1077.2h-49.406a17.261 17.261 0 0 0 -17.246 17.246" fill="none" stroke="#041751" stroke-miterlimit="10" stroke-width="19.181" transform="translate(-160.685 -416.073)"/><path d="m589.9 1094.346a17.068 17.068 0 0 0 -16.878-17.246h-48.422v17.246" fill="none" stroke="#041751" stroke-miterlimit="10" stroke-width="18.992" transform="translate(-202.633 -416.035)"/><path d="m227.39 478.847h189.645v15.712h-189.645z" fill="#041751"/><g fill="#031c97"><path d="m589.6 358.633-13.318 90.219-222.482 9.575-15.834-39.1-3.069-6.69v-29.209s1.78-65.67.8-93.84c-1.043-28.109 12.213-32.405 12.213-32.405l70.7-46.583c-2.271 10.127 3.805 41.8 6.076 52.72.061.368.123.737.184 1.043.368 1.718.552 2.762.552 2.762 4.173 19.946 9.513 41 14.177 58.305.061 23.874 7.181 41.427 11.784 41.427 4.542 0 12.029-17.123 12.152-40.445 4.726-18.167 9.39-40.261 13.318-60.208s10.618-52.413 9.943-54.929c0 0 25.838 12.029 57.814 22.831 32.037 10.8 32.467 29.459 32.467 29.459l12.52 88.255a25.316 25.316 0 0 1 .003 6.813z" transform="translate(-129.359 -81.338)"/><path d="m477.064 263.32c-2.209-10.924-8.347-42.593-6.076-52.72-1.105 11.722 1.718 31.362 6.076 52.72z" transform="translate(-181.734 -81.338)"/><path d="m516.118 435.077c4.112-4.848 8.776-18.78 13.318-36.395-.061 23.322-7.61 40.445-12.152 40.445-4.6 0-11.722-17.553-11.784-41.427 5.831 21.665 10.618 37.377 10.618 37.377z" transform="translate(-195.256 -153.608)"/><path d="m566.2 266.729c5.831-29.889 9.943-54.93 9.943-54.93.736 2.517-9.943 54.93-9.943 54.93z" transform="translate(-218.702 -81.802)"/></g><path d="m471.3 210.6 68.186.736-35.228 29.644z" fill="#dee5ff" transform="translate(-182.046 -81.338)"/><path d="m550.286 266.768-19.64-19.64-5.646-5.646 4.112-3.437 31.117-26.145c.736 2.455-9.943 54.868-9.943 54.868z" fill="#afbeff" transform="translate(-202.788 -81.84)"/><path d="m503.946 240.98-5.646 5.646-20.5 20.5s-.245-.982-.552-2.762c-.061-.368-.123-.675-.184-1.043-2.209-10.924-8.347-42.593-6.076-52.72l29.153 26.759z" fill="#afbeff" transform="translate(-181.734 -81.338)"/><path d="m525.865 267.234h-8.838a1.231 1.231 0 0 1 -1.227-1.228v-10.678a1.231 1.231 0 0 1 1.227-1.227h8.838a1.231 1.231 0 0 1 1.227 1.227v10.679a1.231 1.231 0 0 1 -1.227 1.227z" fill="#af314f" transform="translate(-199.234 -98.14)"/><path d="m529.436 349.07c-.061 23.322-7.61 40.445-12.152 40.445-4.6 0-11.722-17.553-11.784-41.427a118.463 118.463 0 0 1 1.412-18.78c3.928-25.777 4.6-47.5 7.242-56.157.8-2.639 1.841-4.051 3.13-4.051 1.35 0 2.271 1.473 3.069 4.112 2.455 8.715 2.762 30.5 7.365 56.157a105.185 105.185 0 0 1 1.718 19.701z" fill="#af314f" transform="translate(-195.256 -103.934)"/><path d="m606.7 235.4s14.361 11.231 29.214 15.159 29.214 15.712 29.643 20.5" style="fill:none;stroke-miterlimit:10;stroke:#fff;stroke-linecap:round;stroke-width:2.131;opacity:.198" transform="translate(-234.346 -90.917)"/><path d="m662.1 341.4s1.964 33.019 8.04 42.225" style="fill:none;stroke-miterlimit:10;stroke:#fff;stroke-linecap:round;stroke-width:2.131;opacity:.196" transform="translate(-255.745 -131.861)"/><path d="m583.157 553.2-21.235 75.244-206.584-30.81-20.438-61.434z" fill="#031c97" transform="translate(-129.359 -207.105)"/><path d="m293.371 674.252c-2.639 2.148-105.5 23.629-105.5 23.629l-20.071 208.977h26.145l49.713-174.424 48.547-7.856-10.127 34.676-28.846 164.789h23.568l61.865-154.355 98.5-42.532 26.947-65.056-173.38-25.9z" fill="#294aa8" transform="translate(-64.815 -245.731)"/><path d="m370.778 674.29 156.5 22.217 14.239-34.369-173.317-25.838z" fill="#031c97" transform="translate(-142.222 -245.77)"/><path d="m0 273.797h506.026v22.279h-506.026z" fill="#072ff4"/><path d="m387.514 295.094h118.574v421.331h-118.574z" fill="#072ff4"/><path d="m250.972 301.725h-218.92a9.456 9.456 0 0 1 -9.452-9.452v-135.021a9.456 9.456 0 0 1 9.452-9.452h218.92a9.456 9.456 0 0 1 9.452 9.452v135.022a9.378 9.378 0 0 1 -9.452 9.451z" fill="#0931ff" transform="translate(-8.73 -57.081)"/><circle cx="132.812" cy="167.681" fill="#70fbda" r="22.033"/><circle cx="156.196" cy="139.879" fill="#70fbda" r="7.242"/><path d="m216.4 366.7s21.542 48.731 36.579 48.731h-36.579z" fill="#0931ff" transform="translate(-83.588 -141.634)"/><path d="m193.379 366.7s-21.542 48.731-36.579 48.731h36.579z" fill="#0931ff" transform="translate(-60.566 -141.634)"/><path d="m212.713 349.8s-27.413 225.216 109.787 245.763 178.76-49.463 230.542 35.987c48.986 80.833 17.387 157.262 96.487 177.882a143.016 143.016 0 0 0 14.439 2.918" fill="none" stroke="#70fbda" stroke-linecap="round" stroke-miterlimit="10" stroke-width="12.788" transform="translate(-81.3 -135.106)"/><path d="m167.6 1040.382c-39.893 0-72.3-17.123-72.3-73.894v-90.588h144.535v90.649c0 68.37-32.344 73.833-72.235 73.833z" fill="#072ff4" transform="translate(-36.811 -338.319)"/><path d="m137.2 781.234s13.808-193.634-87.581-151.594c0 0-33.019 11.109-33.019 42.962s44 37.929 44 37.929 46.705 1.9 61.128 71.93z" fill="#072ff4" transform="translate(-6.412 -240.891)"/><path d="m198.128 718.582s-54.254-241.812 86.472-250.834a47.93 47.93 0 0 1 9.39.368c20.683 3.069 101.389 18.719 55.359 72.544-52.536 61.5-108.57-2.762-140.362 177.431z" fill="#70fbda" stroke="#fff" stroke-miterlimit="10" stroke-width="6.394" transform="translate(-72.557 -180.633)"/><path d="m213.1 765.9s8.961-178.536 135.881-181.912a50.216 50.216 0 0 1 32.467 10.312c6.26 4.971 11.661 11.845 11.661 20.867 0 15.221-16.141 30.38-25.716 37.99a31.514 31.514 0 0 1 -13.318 6.137c-19.578 3.928-105.686 5.892-121.581 105.992z" fill="#072ff4" transform="translate(-82.313 -225.557)"/><path d="m238.6 759.217s39.709-108.324 104.274-108.017" fill="none" stroke="#fff" stroke-miterlimit="10" stroke-width="2.131" transform="translate(-92.162 -251.525)"/><path d="m318.975 543.573s-82.486-6.015-98.075 123.238" fill="none" stroke="#fff" stroke-miterlimit="10" stroke-width="2.131" transform="translate(-85.326 -209.936)"/><path d="m82.5 693.4s50.817 11.17 59.778 59.778" fill="none" stroke="#fff" stroke-miterlimit="10" stroke-width="2.131" transform="translate(-31.867 -267.826)"/><path d="m111.7 904.6v76.288s-.675 23.568 13.318 27.8z" fill="#fff" opacity=".201" transform="translate(-43.142 -349.405)"/><path d="m97.08 865.647c20.437-6.076 82.118-20.99 141.16-.245a2.491 2.491 0 0 1 -.123 4.726c-20.008 5.892-80.768 20.253-141.1.245a2.471 2.471 0 0 1 .063-4.726z" fill="#0624bb" transform="translate(-36.811 -330.152)"/><path d="m567.874 68.671-75.674-18.289 10.556-43.637a8.862 8.862 0 0 1 10.679-6.506l55.543 13.379a11.912 11.912 0 0 1 8.776 14.361z" fill="#0525c2" transform="translate(-190.119 .015)"/><path d="m568.841 105.743q-59.1-12.612-117.469-28.355c-2.209-.614-2.762-2.578-1.289-4.419 2.455-3.007 3.682-4.48 6.137-7.488 1.473-1.841 4.173-2.946 6.137-2.455q51.643 12.429 103.292 24.918a6.618 6.618 0 0 1 4.3 4.971c.736 3.744 1.227 5.646 2.025 9.452.488 2.394-.924 3.867-3.133 3.376z" fill="#0520a7" transform="translate(-173.533 -24.291)"/></svg>

<svg xmlns="http://www.w3.org/2000/svg" viewBox="0 0 589.062 716.425">
  <defs>
    <style>
      .cls-1 {
        fill: #041751;
      }

      .cls-14, .cls-15, .cls-2, .cls-3, .cls-8, .cls-9 {
        fill: none;
      }

      .cls-2, .cls-3 {
        stroke: #041751;
      }

      .cls-14, .cls-15, .cls-16, .cls-2, .cls-3, .cls-8, .cls-9 {
        stroke-miterlimit: 10;
      }

      .cls-2 {
        stroke-width: 19.181px;
      }

      .cls-3 {
        stroke-width: 18.992px;
      }

      .cls-4 {
        fill: #031c97;
      }

      .cls-5 {
        fill: #dee5ff;
      }

      .cls-6 {
        fill: #afbeff;
      }

      .cls-7 {
        fill: #af314f;
      }

      .cls-15, .cls-16, .cls-8, .cls-9 {
        stroke: #fff;
      }

      .cls-14, .cls-8, .cls-9 {
        stroke-linecap: round;
      }

      .cls-15, .cls-8, .cls-9 {
        stroke-width: 2.131px;
      }

      .cls-8 {
        opacity: 0.198;
      }

      .cls-9 {
        opacity: 0.196;
      }

      .cls-10 {
        fill: #294aa8;
      }

      .cls-11 {
        fill: #072ff4;
      }

      .cls-12 {
        fill: #0931ff;
      }

      .cls-13, .cls-16 {
        fill: #70fbda;
      }

      .cls-14 {
        stroke: #70fbda;
        stroke-width: 12.788px;
      }

      .cls-16 {
        stroke-width: 6.394px;
      }

      .cls-17 {
        fill: #fff;
        opacity: 0.201;
      }

      .cls-18 {
        fill: #0624bb;
      }

      .cls-19 {
        fill: #0525c2;
      }

      .cls-20 {
        fill: #0520a7;
      }
    </style>
  </defs>
  <g id="Group_98" data-name="Group 98" transform="translate(-1337.332 -232.891)">
    <g id="Group_63" data-name="Group 63" transform="translate(1337.332 232.906)">
      <g id="Group_57" data-name="Group 57" transform="translate(227.39 278.324)">
        <path id="Path_95" data-name="Path 95" class="cls-1" d="M569.9,656.586H416.1V469.4A15.9,15.9,0,0,1,432,453.5H554.068a15.9,15.9,0,0,1,15.9,15.9v187.19Z" transform="translate(-388.114 -453.5)"/>
        <rect id="Rectangle_120" data-name="Rectangle 120" class="cls-1" width="13.932" height="166.568" transform="translate(87.642 216.22)"/>
        <path id="Path_96" data-name="Path 96" class="cls-2" d="M482.652,1077.2H433.246A17.261,17.261,0,0,0,416,1094.446h0" transform="translate(-388.075 -694.412)"/>
        <path id="Path_97" data-name="Path 97" class="cls-3" d="M589.9,1094.346h0a17.068,17.068,0,0,0-16.878-17.246H524.6v17.246" transform="translate(-430.023 -694.374)"/>
        <rect id="Rectangle_121" data-name="Rectangle 121" class="cls-1" width="189.645" height="15.712" transform="translate(0 200.508)"/>
      </g>
      <path id="Path_98" data-name="Path 98" class="cls-4" d="M589.6,358.633l-13.318,90.219L353.8,458.427l-15.834-39.1-3.069-6.69V383.428s1.78-65.67.8-93.84c-1.043-28.109,12.213-32.405,12.213-32.405l70.7-46.583c-2.271,10.127,3.805,41.8,6.076,52.72.061.368.123.737.184,1.043.368,1.718.552,2.762.552,2.762,4.173,19.946,9.513,41,14.177,58.305.061,23.874,7.181,41.427,11.784,41.427,4.542,0,12.029-17.123,12.152-40.445,4.726-18.167,9.39-40.261,13.318-60.208h0s10.618-52.413,9.943-54.929c0,0,25.838,12.029,57.814,22.831,32.037,10.8,32.467,29.459,32.467,29.459l12.52,88.255A25.316,25.316,0,0,1,589.6,358.633Z" transform="translate(-129.359 -81.353)"/>
      <path id="Path_99" data-name="Path 99" class="cls-4" d="M477.064,263.32c-2.209-10.924-8.347-42.593-6.076-52.72C469.883,222.322,472.706,241.962,477.064,263.32Z" transform="translate(-181.734 -81.353)"/>
      <path id="Path_100" data-name="Path 100" class="cls-4" d="M516.118,435.077c4.112-4.848,8.776-18.78,13.318-36.395-.061,23.322-7.61,40.445-12.152,40.445-4.6,0-11.722-17.553-11.784-41.427C511.331,419.365,516.118,435.077,516.118,435.077Z" transform="translate(-195.256 -153.623)"/>
      <path id="Path_101" data-name="Path 101" class="cls-4" d="M566.2,266.729h0c5.831-29.889,9.943-54.93,9.943-54.93C576.879,214.316,566.2,266.729,566.2,266.729Z" transform="translate(-218.702 -81.817)"/>
      <path id="Path_102" data-name="Path 102" class="cls-5" d="M471.3,210.6l68.186.736L504.258,240.98Z" transform="translate(-182.046 -81.353)"/>
      <path id="Path_103" data-name="Path 103" class="cls-6" d="M550.286,266.768h0l-19.64-19.64L525,241.482l4.112-3.437L560.229,211.9C560.965,214.355,550.286,266.768,550.286,266.768Z" transform="translate(-202.788 -81.855)"/>
      <path id="Path_104" data-name="Path 104" class="cls-6" d="M503.946,240.98l-5.646,5.646-20.5,20.5s-.245-.982-.552-2.762c-.061-.368-.123-.675-.184-1.043-2.209-10.924-8.347-42.593-6.076-52.72l29.153,26.759Z" transform="translate(-181.734 -81.353)"/>
      <path id="Path_105" data-name="Path 105" class="cls-7" d="M525.865,267.234h-8.838a1.231,1.231,0,0,1-1.227-1.228V255.328a1.231,1.231,0,0,1,1.227-1.227h8.838a1.231,1.231,0,0,1,1.227,1.227v10.679A1.231,1.231,0,0,1,525.865,267.234Z" transform="translate(-199.234 -98.155)"/>
      <path id="Path_106" data-name="Path 106" class="cls-7" d="M529.436,349.07c-.061,23.322-7.61,40.445-12.152,40.445-4.6,0-11.722-17.553-11.784-41.427a118.463,118.463,0,0,1,1.412-18.78c3.928-25.777,4.6-47.5,7.242-56.157.8-2.639,1.841-4.051,3.13-4.051,1.35,0,2.271,1.473,3.069,4.112,2.455,8.715,2.762,30.5,7.365,56.157A105.185,105.185,0,0,1,529.436,349.07Z" transform="translate(-195.256 -103.949)"/>
      <path id="Path_107" data-name="Path 107" class="cls-8" d="M606.7,235.4s14.361,11.231,29.214,15.159,29.214,15.712,29.643,20.5" transform="translate(-234.346 -90.932)"/>
      <path id="Path_108" data-name="Path 108" class="cls-9" d="M662.1,341.4s1.964,33.019,8.04,42.225" transform="translate(-255.745 -131.876)"/>
      <path id="Path_109" data-name="Path 109" class="cls-4" d="M583.157,553.2l-21.235,75.244-206.584-30.81L334.9,536.2Z" transform="translate(-129.359 -207.12)"/>
      <path id="Path_110" data-name="Path 110" class="cls-10" d="M293.371,674.252c-2.639,2.148-105.5,23.629-105.5,23.629L167.8,906.858h26.145l49.713-174.424,48.547-7.856-10.127,34.676L253.232,924.043H276.8l61.865-154.355,98.5-42.532L464.112,662.1,290.732,636.2Z" transform="translate(-64.815 -245.746)"/>
      <path id="Path_111" data-name="Path 111" class="cls-4" d="M370.778,674.29l156.5,22.217,14.239-34.369L368.2,636.3Z" transform="translate(-142.222 -245.785)"/>
      <g id="Group_58" data-name="Group 58" transform="translate(0 273.782)">
        <rect id="Rectangle_122" data-name="Rectangle 122" class="cls-11" width="506.026" height="22.279"/>
        <rect id="Rectangle_123" data-name="Rectangle 123" class="cls-11" width="118.574" height="421.331" transform="translate(387.514 21.297)"/>
      </g>
      <g id="Group_59" data-name="Group 59" transform="translate(13.87 90.704)">
        <path id="Path_112" data-name="Path 112" class="cls-12" d="M250.972,301.725H32.052a9.456,9.456,0,0,1-9.452-9.452V157.252a9.456,9.456,0,0,1,9.452-9.452h218.92a9.456,9.456,0,0,1,9.452,9.452V292.274A9.378,9.378,0,0,1,250.972,301.725Z" transform="translate(-22.6 -147.8)"/>
        <circle id="Ellipse_16" data-name="Ellipse 16" class="cls-13" cx="22.033" cy="22.033" r="22.033" transform="translate(96.909 54.929)"/>
        <circle id="Ellipse_17" data-name="Ellipse 17" class="cls-13" cx="7.242" cy="7.242" r="7.242" transform="translate(135.084 41.918)"/>
        <path id="Path_113" data-name="Path 113" class="cls-12" d="M216.4,366.7s21.542,48.731,36.579,48.731H216.4Z" transform="translate(-97.458 -232.353)"/>
        <path id="Path_114" data-name="Path 114" class="cls-12" d="M193.379,366.7s-21.542,48.731-36.579,48.731h36.579Z" transform="translate(-74.436 -232.353)"/>
        <path id="Path_115" data-name="Path 115" class="cls-14" d="M212.713,349.8S185.3,575.016,322.5,595.563,501.26,546.1,553.042,631.55c48.986,80.833,17.387,157.262,96.487,177.882a143.016,143.016,0,0,0,14.439,2.918" transform="translate(-95.17 -225.825)"/>
      </g>
      <path id="Path_116" data-name="Path 116" class="cls-15" d="M298.4,530" transform="translate(-115.261 -204.725)"/>
      <path id="Path_117" data-name="Path 117" class="cls-15" d="M415.3,698.2" transform="translate(-160.415 -269.695)"/>
      <path id="Path_118" data-name="Path 118" class="cls-15" d="M415.3,712.9" transform="translate(-160.415 -275.373)"/>
      <path id="Path_119" data-name="Path 119" class="cls-15" d="M277.3,514" transform="translate(-107.111 -198.545)"/>
      <g id="Group_61" data-name="Group 61" transform="translate(10.188 287.017)">
        <path id="Path_120" data-name="Path 120" class="cls-11" d="M167.6,1040.382h0c-39.893,0-72.3-17.123-72.3-73.894V875.9H239.835v90.649C239.835,1034.919,207.491,1040.382,167.6,1040.382Z" transform="translate(-46.999 -625.351)"/>
        <path id="Path_121" data-name="Path 121" class="cls-11" d="M137.2,781.234S151.008,587.6,49.619,629.64c0,0-33.019,11.109-33.019,42.962s44,37.929,44,37.929,46.705,1.9,61.128,71.93Z" transform="translate(-16.6 -527.923)"/>
        <path id="Path_122" data-name="Path 122" class="cls-16" d="M198.128,718.582S143.874,476.77,284.6,467.748a47.93,47.93,0,0,1,9.39.368c20.683,3.069,101.389,18.719,55.359,72.544-52.536,61.5-108.57-2.762-140.362,177.431Z" transform="translate(-82.745 -467.665)"/>
        <path id="Path_123" data-name="Path 123" class="cls-11" d="M213.1,765.9s8.961-178.536,135.881-181.912A50.216,50.216,0,0,1,381.448,594.3c6.26,4.971,11.661,11.845,11.661,20.867,0,15.221-16.141,30.38-25.716,37.99a31.514,31.514,0,0,1-13.318,6.137c-19.578,3.928-105.686,5.892-121.581,105.992Z" transform="translate(-92.501 -512.589)"/>
        <path id="Path_124" data-name="Path 124" class="cls-15" d="M238.6,759.217S278.309,650.893,342.874,651.2" transform="translate(-102.35 -538.557)"/>
        <path id="Path_125" data-name="Path 125" class="cls-15" d="M318.975,543.573s-82.486-6.015-98.075,123.238" transform="translate(-95.514 -496.968)"/>
        <path id="Path_126" data-name="Path 126" class="cls-15" d="M82.5,693.4s50.817,11.17,59.778,59.778" transform="translate(-42.055 -554.858)"/>
        <path id="Path_127" data-name="Path 127" class="cls-17" d="M111.7,904.6v76.288s-.675,23.568,13.318,27.8Z" transform="translate(-53.33 -636.437)"/>
        <g id="Group_60" data-name="Group 60" transform="translate(48.301 237.574)">
          <path id="Path_128" data-name="Path 128" class="cls-18" d="M97.08,865.647c20.437-6.076,82.118-20.99,141.16-.245a2.491,2.491,0,0,1-.123,4.726c-20.008,5.892-80.768,20.253-141.1.245A2.471,2.471,0,0,1,97.08,865.647Z" transform="translate(-95.3 -854.758)"/>
        </g>
      </g>
      <path id="Path_129" data-name="Path 129" class="cls-19" d="M567.874,68.671,492.2,50.382,502.756,6.745A8.862,8.862,0,0,1,513.435.239l55.543,13.379a11.912,11.912,0,0,1,8.776,14.361Z" transform="translate(-190.119 0)"/>
      <g id="Group_62" data-name="Group 62" transform="translate(275.728 38.604)">
        <path id="Path_130" data-name="Path 130" class="cls-20" d="M568.841,105.743q-59.1-12.612-117.469-28.355c-2.209-.614-2.762-2.578-1.289-4.419,2.455-3.007,3.682-4.48,6.137-7.488,1.473-1.841,4.173-2.946,6.137-2.455Q514,75.455,565.649,87.944a6.618,6.618,0,0,1,4.3,4.971c.736,3.744,1.227,5.646,2.025,9.452C572.462,104.761,571.05,106.234,568.841,105.743Z" transform="translate(-449.261 -62.91)"/>
      </g>
    </g>
  </g>
</svg>
